X:289
T: ES WOLLT EIN VOEGLEIN HOCHZEIT MACHN
N: E0163B
O: Europa, Mitteleuropa, Deutschland, Charlottenburg
R: erzaehlendes Volks - Lied, Sage, Tier - Maerchen
M: 2/4
L: 1/16
K: C
G,2 | C2C2E2D2 | D2C2C2
G,2 | A,2B,2C2A,2 | A,2G,2G,2
G,G, | C2C2C2CC | E2E2E2
EE | D2D2D2B,2 | C4z2

@@@ Tune index: 3939
